images/ico/chat.svg

<svg xmlns="http://www.w3.org/2000/svg" width="32" height="32" viewBox="0 0 32 32">
  <g fill="none" fill-rule="evenodd">
    <circle cx="16" cy="16" r="16" fill="#1C98F7"/>
    <path fill="#FFF" d="M16.2806167,23.3251554 C16.9986213,23.2748865 17.6959383,23.1594381 18.3644301,22.9854991 C18.8799546,23.1457101 19.4390376,23.2335773 20.0244874,23.2335773 C20.3436608,23.2335773 20.65849,23.2073819 20.9659381,23.1558629 C21.000191,23.1501231 21.0348714,23.147238 21.0696132,23.147238 C21.3794793,23.147238 21.7869014,23.3263603 22.379747,23.7064886 L22.379747,23.0824241 C22.379747,22.8628858 22.4985716,22.6601166 22.6912525,22.5508529 C22.9492638,22.4045423 23.1892796,22.2374724 23.4077055,22.0524503 C24.2724935,21.3199138 24.7596899,20.3442056 24.7596899,19.3100789 C24.7596899,18.9631301 24.7046875,18.6257316 24.6013204,18.303877 C24.8624563,17.8168521 25.0733774,17.3050274 25.2282175,16.773225 C25.7190807,17.519847 26,18.384523 26,19.3100789 C26,20.7149536 25.3457859,22.025148 24.2148886,22.9830979 C24.0278814,23.1415062 23.8291406,23.2890704 23.6200571,23.424827 L23.6200571,24.8860288 C23.6200571,25.3891291 23.0405609,25.6779266 22.6312137,25.3788284 C22.1333092,25.015024 21.7320105,24.7445837 21.4316364,24.5693777 C21.292986,24.488504 21.1798116,24.4303148 21.0629889,24.3819049 C20.7223106,24.4332808 20.3752202,24.4593126 20.0244874,24.4593126 C18.611733,24.4593126 17.3076519,24.0360494 16.2806167,23.3251554 Z M8.81365324,20.402505 C7.02962027,18.8913031 6,16.8292828 6,14.6204961 C6,10.1072081 10.2584503,6.5 15.4573643,6.5 C20.6562784,6.5 24.9147287,10.1072081 24.9147287,14.6204961 C24.9147287,19.133784 20.6562784,22.7409921 15.4573643,22.7409921 C14.8731139,22.7409921 14.2953397,22.6955141 13.7291094,22.6058345 C13.4837391,22.6639133 12.504741,23.2458317 11.0944466,24.2762931 C10.5827626,24.6501658 9.85839227,24.2891689 9.85839227,23.6602935 L9.85839227,21.1676834 C9.48937888,20.9348183 9.1401458,20.6790673 8.81365324,20.402505 Z M13.7629938,21.0688487 C13.8064211,21.0688487 13.8497716,21.0724551 13.8925877,21.0796298 C14.4037403,21.1652836 14.927019,21.208823 15.4573643,21.208823 C19.8485111,21.208823 23.3643411,18.2306668 23.3643411,14.6204961 C23.3643411,11.0103253 19.8485111,8.03216907 15.4573643,8.03216907 C11.0662176,8.03216907 7.5503876,11.0103253 7.5503876,14.6204961 C7.5503876,16.3658478 8.37123584,18.0097604 9.82263211,19.2391956 C10.1877573,19.5484824 10.5886814,19.827557 11.0193981,20.0718038 C11.2602492,20.2083834 11.4087799,20.4618448 11.4087799,20.7362677 L11.4087799,22.173118 C12.5254731,21.4244049 13.2598863,21.0688487 13.7629938,21.0688487 Z M11.4263566,16.1526651 C10.7413522,16.1526651 10.1860465,15.6038848 10.1860465,14.9269299 C10.1860465,14.249975 10.7413522,13.7011946 11.4263566,13.7011946 C12.1113609,13.7011946 12.6666667,14.249975 12.6666667,14.9269299 C12.6666667,15.6038848 12.1113609,16.1526651 11.4263566,16.1526651 Z M15.4573643,16.1526651 C14.77236,16.1526651 14.2170543,15.6038848 14.2170543,14.9269299 C14.2170543,14.249975 14.77236,13.7011946 15.4573643,13.7011946 C16.1423687,13.7011946 16.6976744,14.249975 16.6976744,14.9269299 C16.6976744,15.6038848 16.1423687,16.1526651 15.4573643,16.1526651 Z M19.4883721,16.1526651 C18.8033678,16.1526651 18.248062,15.6038848 18.248062,14.9269299 C18.248062,14.249975 18.8033678,13.7011946 19.4883721,13.7011946 C20.1733764,13.7011946 20.7286822,14.249975 20.7286822,14.9269299 C20.7286822,15.6038848 20.1733764,16.1526651 19.4883721,16.1526651 Z"/>
  </g>
</svg>

<svg xmlns="http://www.w3.org/2000/svg" width="32" height="32" viewBox="0 0 32 32"><g fill="none" fill-rule="evenodd"><circle cx="16" cy="16" r="16" fill="#1C98F7"/><path fill="#FFF" d="M16.28 23.325a11.45 11.45 0 0 0 2.084-.34 5.696 5.696 0 0 0 2.602.17.627.627 0 0 1 .104-.008c.31 0 .717.18 1.31.56v-.625a.61.61 0 0 1 .311-.531c.258-.146.498-.314.717-.499.864-.732 1.352-1.708 1.352-2.742 0-.347-.055-.684-.159-1.006.261-.487.472-.999.627-1.53A4.59 4.59 0 0 1 26 19.31c0 1.405-.654 2.715-1.785 3.673a5.843 5.843 0 0 1-.595.442v1.461c0 .503-.58.792-.989.493a15.032 15.032 0 0 0-1.2-.81 2.986 2.986 0 0 0-.368-.187c-.34.051-.688.077-1.039.077-1.412 0-2.716-.423-3.743-1.134zm-7.466-2.922C7.03 18.89 6 16.829 6 14.62c0-4.513 4.258-8.12 9.457-8.12 5.2 0 9.458 3.607 9.458 8.12 0 4.514-4.259 8.121-9.458 8.121-.584 0-1.162-.045-1.728-.135-.245.058-1.224.64-2.635 1.67-.511.374-1.236.013-1.236-.616v-2.492a9.27 9.27 0 0 1-1.044-.765zm4.949.666c.043 0 .087.003.13.01.51.086 1.034.13 1.564.13 4.392 0 7.907-2.978 7.907-6.589 0-3.61-3.515-6.588-7.907-6.588-4.39 0-7.907 2.978-7.907 6.588 0 1.746.821 3.39 2.273 4.62.365.308.766.588 1.196.832.241.136.39.39.39.664v1.437c1.116-.749 1.85-1.104 2.354-1.104zm-2.337-4.916c-.685 0-1.24-.55-1.24-1.226 0-.677.555-1.226 1.24-1.226.685 0 1.24.549 1.24 1.226 0 .677-.555 1.226-1.24 1.226zm4.031 0c-.685 0-1.24-.55-1.24-1.226 0-.677.555-1.226 1.24-1.226.685 0 1.24.549 1.24 1.226 0 .677-.555 1.226-1.24 1.226zm4.031 0c-.685 0-1.24-.55-1.24-1.226 0-.677.555-1.226 1.24-1.226.685 0 1.24.549 1.24 1.226 0 .677-.555 1.226-1.24 1.226z"/></g></svg>
